packages/icons/svg/24/Body.svg

<svg width="24" height="24" viewBox="0 0 24 24" fill="none" xmlns="http://www.w3.org/2000/svg">
<path fill-rule="evenodd" clip-rule="evenodd" d="M12 6C12.5523 6 13 5.55228 13 5C13 4.44772 12.5523 4 12 4C11.4477 4 11 4.44772 11 5C11 5.55228 11.4477 6 12 6ZM12 8C13.6569 8 15 6.65685 15 5C15 3.34315 13.6569 2 12 2C10.3431 2 9 3.34315 9 5C9 6.65685 10.3431 8 12 8Z" fill="#858585"/>
<path fill-rule="evenodd" clip-rule="evenodd" d="M5 10C5 9.44772 5.44772 9 6 9H18C18.5523 9 19 9.44772 19 10C19 10.5523 18.5523 11 18 11H15V15.8074L16.9285 20.6286C17.1336 21.1414 16.8842 21.7234 16.3714 21.9285C15.8586 22.1336 15.2766 21.8842 15.0715 21.3714L13.323 17H10.677L8.92848 21.3714C8.72336 21.8842 8.14139 22.1336 7.62861 21.9285C7.11583 21.7234 6.86641 21.1414 7.07152 20.6286L9 15.8074V11H6C5.44772 11 5 10.5523 5 10ZM11 11V15H13V11H11Z" fill="#858585"/>
</svg>

<svg width="24" height="24" fill="none" xmlns="http://www.w3.org/2000/svg" viewBox="0 0 24 24"><path fill-rule="evenodd" clip-rule="evenodd" d="M12 6a1 1 0 100-2 1 1 0 000 2zm0 2a3 3 0 100-6 3 3 0 000 6zM5 10a1 1 0 011-1h12a1 1 0 110 2h-3v4.807l1.928 4.822a1 1 0 01-1.857.742L13.324 17h-2.646l-1.749 4.371a1 1 0 11-1.856-.742L9 15.807V11H6a1 1 0 01-1-1zm6 1v4h2v-4h-2z" fill="currentColor"></path></svg>
